dist/svgs/org-avatar.svg

<svg xmlns="http://www.w3.org/2000/svg" viewBox="0 0 512 512"><path d="M256 0q53 0 99.5 20T437 75t55 81.5 20 99.5-20 99.5-55 81.5-81.5 55-99.5 20-99.5-20T75 437t-55-81.5T0 256t20-99.5T75 75t81.5-55T256 0zm0 479q42 0 80-15.5t67-41.5l-5-27q-5-6-12-9l-87-31q-25-10-25-36v-12q0-27 21-44 21-18 21-47v-36q0-26-17.5-43.5T256 119t-42.5 17.5T196 180v36q0 29 21 47 21 17 21 44v12q0 26-25 36l-87 31q-8 3-12 9l-5 25-1 2q30 26 67.5 41.5T256 479zm175-86q23-29 35-63.5t12-73.5q0-46-17.5-86.5T413 99t-70.5-47.5T256 34t-86.5 17.5T99 99t-47.5 70.5T34 256q0 39 12 73.5T81 393l1-7q0-1 .5-2t.5-2q11-21 31-27l88-32q3 0 3-4v-12q0-12-9-18-17-14-25.5-33t-8.5-40v-36q0-19 7.5-36.5t20-30 29.5-20 37-7.5q19 0 36.5 7.5t30 20 20 30T350 180v36q0 44-34 72-9 8-9 19v12q0 4 3 4l88 32q20 6 31 27 0 1 .5 2t.5 2z"/></svg>

<?xml version="1.0" encoding="UTF-8" standalone="no"?><svg   xmlns:svg="http://www.w3.org/2000/svg"   xmlns="http://www.w3.org/2000/svg"   version="1.1"   width="512"   height="512"   viewBox="0 0 512 512">  <path     d="M256 0Q309 0 355.5 20T437 75T492 156.5T512 256T492 355.5T437 437T355.5 492T256 512T156.5 492T75 437T20 355.5T0 256T20 156.5T75 75T156.5 20T256 0zM256 479Q298 479 336 463.5T403 422L398 395Q393 389 386 386L299 355Q274 345 274 319V307Q274 280 295 263Q316 245 316 216V180Q316 154 298.5 136.5T256 119T213.5 136.5T196 180V216Q196 245 217 263Q238 280 238 307V319Q238 345 213 355L126 386Q118 389 114 395L109 420L108 422Q138 448 175.5 463.5T256 479zM431 393Q454 364 466 329.5T478 256Q478 210 460.5 169.5T413 99T342.5 51.5T256 34T169.5 51.5T99 99T51.5 169.5T34 256Q34 295 46 329.5T81 393L82 386Q82 385 82.5 384T83 382Q94 361 114 355L202 323Q205 323 205 319V307Q205 295 196 289Q179 275 170.5 256T162 216V180Q162 161 169.5 143.5T189.5 113.5T219 93.5T256 86Q275 86 292.5 93.5T322.5 113.5T342.5 143.5T350 180V216Q350 260 316 288Q307 296 307 307V319Q307 323 310 323L398 355Q418 361 429 382Q429 383 429.5 384T430 386z"     id="org-avatar" /></svg>
